flaticon/casino-gambling/poker-47.svg

<svg xmlns="http://www.w3.org/2000/svg" width="32" height="32" viewBox="0 0 24 24">
    <path d="M 19.601562 0 L 4.398438 0 C 3.71875 0 3.199219 0.519531 3.199219 1.199219 L 3.199219 22.800781 C 3.199219 23.480469 3.71875 24 4.398438 24 L 19.601562 24 C 20.28125 24 20.800781 23.480469 20.800781 22.800781 L 20.800781 1.199219 C 20.800781 0.519531 20.28125 0 19.601562 0 Z M 20 22.800781 C 20 23.039062 19.839844 23.199219 19.601562 23.199219 L 4.398438 23.199219 C 4.160156 23.199219 4 23.039062 4 22.800781 L 4 1.199219 C 4 0.960938 4.160156 0.800781 4.398438 0.800781 L 19.601562 0.800781 C 19.839844 0.800781 20 0.960938 20 1.199219 Z M 20 22.800781"/>
    <path d="M14.480469 8.800781C13.519531 8.800781 12.601562 9.359375 12 10.320312 11.398438 9.359375 10.519531 8.800781 9.519531 8.800781 8.441406 8.800781 7.480469 9.28125 6.800781 10.160156 6 11.199219 5.398438 13.519531 7.199219 15.28125 8 16.078125 11.71875 19.878906 11.71875 19.878906L12 20.160156 12.28125 19.921875C12.28125 19.921875 16 16.121094 16.800781 15.320312 18.601562 13.519531 18 11.199219 17.199219 10.160156 16.519531 9.28125 15.558594 8.800781 14.480469 8.800781zM16.238281 14.71875C15.601562 15.398438 12.878906 18.160156 12 19.039062 11.121094 18.121094 8.441406 15.398438 7.761719 14.71875 6.320312 13.28125 6.800781 11.480469 7.441406 10.640625 7.960938 10 8.71875 9.601562 9.519531 9.601562 10.558594 9.601562 11.320312 10.558594 11.640625 11.320312L12 12.28125 12.359375 11.359375C12.679688 10.558594 13.441406 9.601562 14.480469 9.601562 15.28125 9.601562 16.039062 10 16.558594 10.640625 17.199219 11.441406 17.679688 13.28125 16.238281 14.71875zM5.917969 4.570312L7.679688 7.039062C7.761719 7.160156 7.878906 7.199219 8 7.199219 8.078125 7.199219 8.160156 7.160156 8.238281 7.121094 8.398438 7 8.441406 6.71875 8.320312 6.558594L6.453125 3.945312 7.878906 2.28125C8.039062 2.121094 8 1.878906 7.839844 1.71875 7.679688 1.558594 7.441406 1.601562 7.28125 1.761719L5.601562 3.71875 5.601562 2C5.601562 1.761719 5.441406 1.601562 5.199219 1.601562 4.960938 1.601562 4.800781 1.761719 4.800781 2L4.800781 4.683594C4.769531 4.761719 4.773438 4.847656 4.800781 4.929688L4.800781 6.800781C4.800781 7.039062 4.960938 7.199219 5.199219 7.199219 5.441406 7.199219 5.601562 7.039062 5.601562 6.800781L5.601562 4.941406zM5.917969 4.570312"/>
</svg>

<svg xmlns="http://www.w3.org/2000/svg" width="32" height="32" viewBox="0 0 24 24">
    <path d="M19.602 0H4.398C3.718 0 3.2.52 3.2 1.2v21.6c0 .68.52 1.2 1.2 1.2h15.203c.68 0 1.199-.52 1.199-1.2V1.2c0-.68-.52-1.2-1.2-1.2zM20 22.8c0 .24-.16.4-.398.4H4.398c-.238 0-.398-.16-.398-.4V1.2c0-.24.16-.4.398-.4h15.204c.238 0 .398.16.398.4zm0 0"/>
    <path d="M14.48 8.8c-.96 0-1.878.56-2.48 1.52-.602-.96-1.48-1.52-2.48-1.52-1.079 0-2.04.481-2.72 1.36-.8 1.04-1.402 3.36.4 5.121.8.797 4.519 4.598 4.519 4.598l.281.281.281-.238s3.719-3.8 4.52-4.602c1.8-1.8 1.199-4.12.398-5.16-.68-.879-1.64-1.36-2.719-1.36zm1.758 5.919c-.636.68-3.36 3.441-4.238 4.32-.879-.918-3.559-3.64-4.238-4.32-1.442-1.438-.961-3.239-.32-4.078C7.96 10 8.718 9.6 9.52 9.6c1.039 0 1.8.958 2.12 1.72l.36.96.36-.922c.32-.8 1.081-1.757 2.12-1.757.801 0 1.56.398 2.079 1.039.64.8 1.12 2.64-.32 4.078zm0 0M5.918 4.57L7.68 7.04c.082.12.199.16.32.16a.57.57 0 0 0 .238-.079c.16-.121.203-.402.082-.562L6.453 3.945 7.88 2.281c.16-.16.121-.402-.04-.562-.16-.16-.398-.117-.558.043l-1.68 1.957V2c0-.238-.16-.398-.402-.398-.238 0-.398.16-.398.398v2.684a.355.355 0 0 0 0 .246V6.8c0 .24.16.4.398.4.242 0 .403-.16.403-.4V4.942zm0 0"/>
</svg>
